X: 1
T: Hanter Dro
M: 3/2
L: 1/8
R: three-two
K: Emin
|: G2 FG E2 D2 E4 | G2 FG A2 B2 G2 E2 | G2 FG E2 D2 E4 | G2 FG A2 G2 F4 :|
|: E2 BA B2 c2 Ac B2 | A2 BA G2 E2 AG F2 | E2 BA B2 c2 Ac B2 | A2 GA B2 A2 GF E2 :|
